X:53
T:Smoke On the Water
M:C|
L:1/8
K:G
"G"DE | "G"G G2G GE DE | "C"G G2 E "G"G2 DE | "G"GF GF GF G^G | "A" AA FE "D" DD EF | 
"G" G G2 F GB DE | "C" G G2 E "G" G4|"G"Bd de dB GA | "D" BG AF "G" GD EF || 
"G" G G2 E G B2 E | "C"G2 GE "G" G4 | "G" GF GF GF G^G | "A" AA FE "D" DD EF | 
"G" G4 G3 B | "C" G G2 E "C#dim" G4 | "G" Bd de dB GA | "D" BG AF "G"G2 |]
